X: 29960
T: Oak Tree, The
R: reel
M: 4/4
K: Dmajor
|:D2ED ADED|FAAF GFED|A3B =cdec|A3B =cAEG|
F2ED ADED|FAAF GFED|B2eg fdec|1 d2ce dBAG:|2 d2ce dfea||
|:fBB2 faea|fece faec|A3c eAce|cAea fece|
fBB2 faea|fece faec|ABce a3e|1 faec B2ae:|2 faec BABc||
|:d2fd Adfd|c2ec Acec|d2fd Adfg|1 afge dcBc:|2 afge dBAG||

